svgs/materials/action/swipe_left.svg

<svg xmlns="http://www.w3.org/2000/svg" enable-background="new 0 0 24 24" height="24" viewBox="0 0 24 24" width="24"><g><rect fill="none" height="24" width="24"/></g><g><path d="M19.98,16.82l-0.63,4.46C19.21,22.27,18.36,23,17.37,23h-6.16c-0.53,0-1.29-0.21-1.66-0.59L5,17.62l0.83-0.84 c0.24-0.24,0.58-0.35,0.92-0.28L10,17.24V6.5C10,5.67,10.67,5,11.5,5S13,5.67,13,6.5v6h0.91c0.31,0,0.62,0.07,0.89,0.21l4.09,2.04 C19.66,15.14,20.1,15.97,19.98,16.82z M12,2.5c4.74,0,7.67,2.52,8.43,4.5H22c-0.73-2.88-4.51-6-10-6C8.78,1,5.82,2.13,3.5,4.02V2H2 v5h5V5.5H4.09C6.21,3.64,8.97,2.5,12,2.5z"/></g></svg>

<?xml version="1.0" encoding="UTF-8" standalone="no"?>
<svg
   enable-background="new 0 0 24 24"
   height="24"
   viewBox="0 0 24 24"
   width="24"
   version="1.1"
   id="svg10"
   sodipodi:docname="swipe_left.svg"
   inkscape:version="1.2 (dc2aeda, 2022-05-15)"
   xmlns:inkscape="http://www.inkscape.org/namespaces/inkscape"
   xmlns:sodipodi="http://sodipodi.sourceforge.net/DTD/sodipodi-0.dtd"
   xmlns="http://www.w3.org/2000/svg"
   xmlns:svg="http://www.w3.org/2000/svg">
  <defs
     id="defs14" />
  <sodipodi:namedview
     id="namedview12"
     pagecolor="#ffffff"
     bordercolor="#000000"
     borderopacity="0.25"
     inkscape:showpageshadow="2"
     inkscape:pageopacity="0.0"
     inkscape:pagecheckerboard="0"
     inkscape:deskcolor="#d1d1d1"
     showgrid="false"
     inkscape:zoom="9.8333333"
     inkscape:cx="8.2372881"
     inkscape:cy="12"
     inkscape:window-width="1309"
     inkscape:window-height="456"
     inkscape:window-x="0"
     inkscape:window-y="25"
     inkscape:window-maximized="0"
     inkscape:current-layer="svg10" />
  <path
     id="rect2"
     style="fill:none"
     d="M 0,0 H 24 V 24 H 0 Z" />
  <path
     d="m 19.98,16.82 -0.63,4.46 C 19.21,22.27 18.36,23 17.37,23 H 11.21 C 10.68,23 9.92,22.79 9.55,22.41 L 5,17.62 5.83,16.78 C 6.07,16.54 6.41,16.43 6.75,16.5 L 10,17.24 V 6.5 C 10,5.67 10.67,5 11.5,5 12.33,5 13,5.67 13,6.5 v 6 h 0.91 c 0.31,0 0.62,0.07 0.89,0.21 l 4.09,2.04 c 0.77,0.39 1.21,1.22 1.09,2.07 z M 12,2.5 c 4.74,0 7.67,2.52 8.43,4.5 H 22 C 21.27,4.12 17.49,1 12,1 8.78,1 5.82,2.13 3.5,4.02 V 2 H 2 V 7 H 7 V 5.5 H 4.09 C 6.21,3.64 8.97,2.5 12,2.5 Z"
     id="path6" />
</svg>
